X:1
T: Salmon Tails up the Water
C:
R:Strathspey
Q: 128
K:A
M:4/4
L:1/16
e2|:Ae3 e3f e3A c4|Ae3 e3=c B=G3 dB3|Ae3 e3f e3A c4|BE3 E3F =G3A BG3|
Ae3 e3f e3A c4|Ae3 e3=c B=G3 dB3|Ae3 e3f e3A c4|BE3 E3F =G3A BG3|
Aa3 a4 e3a c3a|=G=g3 g4 d3g BG3|Aa3 a4 e3a c3a|=gb3 eg3 dg3 B=G3|
Aa3 a4 e3a c3a|=G=g3 g4 d3g BG3|Aa3 a4 e3a c3a|=gb3 eg3 dg3 B=G3:|
